X:1
T:Title
%%score { 1 | 2 }
L:1/8
M:3/4
K:G
V:1 treble nm="Grand Piano"
V:2 bass 
V:1
 z2 z2[Q:1/4=90] [DGB][EGc] | [DGB]3 A GF | G2 B2 D^D | E3 E GE |[M:2/4] [G,B,D]4 | %5
[M:1/4] [DGB][EGc] |[M:3/4] [DGB]3 A GF | G2 B2 BB | A3 [^Gd] [=Gd][G^c] |[M:2/4] [Fd]4 | %10
[M:1/4] [Bd]c |[M:3/4] B3 B cd | e2 [Ee]2 [CEc][EB] | [A,EA]3 [DFA] [DFd][DFc] |[M:2/4] [DGB]4 | %15
[M:1/4] [B,DG][B,^DG] |[M:3/4] [CEG]3 [CEG] [CG][CEG] | [B,DG]2 [B,DG]2 [Ge][Ge] | %18
 [Gd]3 [GB] [FB][FA] |[M:2/4] G4 |] %20
V:2
 z2 z2 G,,G,, | D,3 [D,CD] [D,B,D][D,A,D] | [G,B,D]2 [G,D]2 [G,B,][F,A,B,] | %3
 [E,G,B,]3 [C,G,C] [C,E,C][C,G,C] |[M:2/4] G,,4 |[M:1/4] G,,G,, | %6
[M:3/4] D,3 [D,CD] [D,B,D][D,A,D] | [G,B,D]2 [G,D]2 [G,B,E][G,^CE] | [F,D]3 [=F,B,] [E,B,][E,A,] | %9
[M:2/4] [D,A,]4 |[M:1/4][K:treble] [G,E][A,DF] |[M:3/4] [B,DG]3 [G,DG] [A,DF][B,D=F] | %12
 [CE]2[K:bass] [C,C]2 A,,[B,,^G,] | ^C,3 =C, B,,A,, |[M:2/4] G,,4 |[M:1/4] G,,G,, | %16
[M:3/4] C,3 C, E,C, | G,2 G,2 [C,G,][C,A,] | [D,B,]3 [D,D] [D,D][D,C] |[M:2/4] [G,B,]4 |] %20

